X:14
T: Két malomra tartok számot
O: Isaszeg (Pest), 1917
Q: 1/4=110
M:2/4
L:1/4
K:G
E/^D/E/F/ | GF | EB,/z/ | 
E/^D/E/F/ | GF | EB,/z/ | 
B/c/ d | d2 | c/B/A | B/B/ B/ z| 
E/F/G | G2 | A/G/ F | G/F/E/z/ | 